material/.icons/material/account-convert-outline.svg

<svg xmlns="http://www.w3.org/2000/svg" viewBox="0 0 24 24"><path d="M12 0l-.66.03 3.81 3.81L16.5 2.5c3.25 1.57 5.59 4.74 5.95 8.5h1.5C23.44 4.84 18.29 0 12 0m0 4c-1.93 0-3.5 1.57-3.5 3.5S10.07 11 12 11s3.5-1.57 3.5-3.5S13.93 4 12 4m0 2c.83 0 1.5.67 1.5 1.5S12.83 9 12 9s-1.5-.67-1.5-1.5S11.17 6 12 6M.05 13C.56 19.16 5.71 24 12 24l.66-.03-3.81-3.81L7.5 21.5c-3.25-1.56-5.59-4.74-5.95-8.5H.05M12 13c-3.87 0-7 1.57-7 3.5V18h14v-1.5c0-1.93-3.13-3.5-7-3.5m0 2c2.11 0 3.61.53 4.39 1H7.61c.78-.47 2.28-1 4.39-1z"/></svg>

<?xml version="1.0" encoding="UTF-8"?><!DOCTYPE svg PUBLIC "-//W3C//DTD SVG 1.1//EN" "http://www.w3.org/Graphics/SVG/1.1/DTD/svg11.dtd"><svg xmlns="http://www.w3.org/2000/svg" xmlns:xlink="http://www.w3.org/1999/xlink" version="1.1" id="mdi-account-convert-outline" width="24" height="24" viewBox="0 0 24 24"><path d="M12 0L11.34 .03L15.15 3.84L16.5 2.5C19.75 4.07 22.09 7.24 22.45 11H23.95C23.44 4.84 18.29 0 12 0M12 4C10.07 4 8.5 5.57 8.5 7.5C8.5 9.43 10.07 11 12 11C13.93 11 15.5 9.43 15.5 7.5C15.5 5.57 13.93 4 12 4M12 6C12.83 6 13.5 6.67 13.5 7.5C13.5 8.33 12.83 9 12 9C11.17 9 10.5 8.33 10.5 7.5C10.5 6.67 11.17 6 12 6M.05 13C.56 19.16 5.71 24 12 24L12.66 23.97L8.85 20.16L7.5 21.5C4.25 19.94 1.91 16.76 1.55 13H.05M12 13C8.13 13 5 14.57 5 16.5V18H19V16.5C19 14.57 15.87 13 12 13M12 15C14.11 15 15.61 15.53 16.39 16H7.61C8.39 15.53 9.89 15 12 15Z" /></svg>
